images/041-customer-service-1-1.svg

<svg width="79" height="79" viewBox="0 0 79 79" fill="none" xmlns="http://www.w3.org/2000/svg">
<path d="M16.2012 66.5032C15.9147 66.5032 15.64 66.617 15.4374 66.8195C15.2349 67.0221 15.1211 67.2968 15.1211 67.5833V68.5819C15.1211 68.8683 15.2349 69.143 15.4374 69.3456C15.64 69.5481 15.9147 69.6619 16.2012 69.6619C16.4876 69.6619 16.7623 69.5481 16.9649 69.3456C17.1675 69.143 17.2812 68.8683 17.2812 68.5819V67.5833C17.2812 67.2968 17.1675 67.0221 16.9649 66.8195C16.7623 66.617 16.4876 66.5032 16.2012 66.5032Z" fill="#8A1A10"/>
<path d="M25.5952 11.8809H29.5185C29.805 11.8809 30.0797 11.7671 30.2823 11.5645C30.4848 11.362 30.5986 11.0872 30.5986 10.8008C30.5986 10.5143 30.4848 10.2396 30.2823 10.0371C30.0797 9.8345 29.805 9.7207 29.5185 9.7207H25.5952C25.3088 9.7207 25.034 9.8345 24.8315 10.0371C24.6289 10.2396 24.5151 10.5143 24.5151 10.8008C24.5151 11.0872 24.6289 11.362 24.8315 11.5645C25.034 11.7671 25.3088 11.8809 25.5952 11.8809Z" fill="#8A1A10"/>
<path d="M25.5952 8.17773H29.5185C29.805 8.17773 30.0797 8.06394 30.2823 7.86139C30.4848 7.65883 30.5986 7.38411 30.5986 7.09766C30.5986 6.8112 30.4848 6.53648 30.2823 6.33393C30.0797 6.13137 29.805 6.01758 29.5185 6.01758H25.5952C25.3088 6.01758 25.034 6.13137 24.8315 6.33393C24.6289 6.53648 24.5151 6.8112 24.5151 7.09766C24.5151 7.38411 24.6289 7.65883 24.8315 7.86139C25.034 8.06394 25.3088 8.17773 25.5952 8.17773Z" fill="#8A1A10"/>
<path d="M7.39185 74.0625H37.3426C37.345 74.0625 37.3475 74.054 37.35 74.0548L37.3642 76.1722C37.3687 76.6786 37.5732 77.1626 37.9331 77.5189C38.293 77.8752 38.7791 78.0748 39.2855 78.0742H39.2998L41.8548 78.0554C42.3641 78.0511 42.8509 77.845 43.2084 77.4822C43.5659 77.1195 43.765 76.6298 43.7619 76.1205L43.7487 74.1326L63.4755 73.98L63.4886 75.988C63.4921 76.4975 63.6953 76.9853 64.0546 77.3465C64.4138 77.7078 64.9005 77.9137 65.41 77.9199H65.4243L67.9793 77.8763C68.4899 77.8691 68.9769 77.6604 69.3342 77.2957C69.6915 76.9309 69.89 76.4396 69.8866 75.929L69.8722 73.7831C70.3978 73.5956 70.8547 73.254 71.1832 72.8029C71.5117 72.3518 71.6965 71.8121 71.7134 71.2543L72.6756 65.061C72.6846 65.0034 72.6889 64.9451 72.6884 64.8868C72.6869 63.7818 72.2852 62.7148 71.5578 61.8831C70.9663 61.2019 70.1577 60.746 69.2688 60.5924L66.2064 55.0755C65.181 53.2676 63.6795 51.2266 61.1401 51.2266H61.1054L45.8977 51.3202C43.8251 51.3357 42.0138 52.7291 40.7942 55.2724L40.2261 56.2907L35.0255 54.0632V49.0664H35.8871C36.496 49.0629 37.0883 48.8671 37.5792 48.5068C38.0701 48.1466 38.4346 47.6404 38.6206 47.0606H40.283C42.7755 47.0606 44.7462 44.9607 44.7462 42.4687V41.5059H45.1489C45.6613 41.5115 46.1697 41.4155 46.6447 41.2233C47.1197 41.0312 47.5519 40.7467 47.9163 40.3864C48.2806 40.0261 48.5699 39.5972 48.7673 39.1243C48.9647 38.6515 49.0664 38.1442 49.0665 37.6318V36.7227H49.9338C50.2203 36.7227 50.495 36.6089 50.6976 36.4063C50.9001 36.2038 51.0139 35.929 51.0139 35.6426C51.0139 35.3561 50.9001 35.0814 50.6976 34.8788C50.495 34.6763 50.2203 34.5625 49.9338 34.5625H49.0665V33.829C49.06 32.9334 48.752 32.0661 48.1921 31.367C47.6322 30.668 46.8531 30.178 45.9806 29.976V26.1302C46.2083 26.0682 46.4084 25.931 46.5484 25.7411C46.6884 25.5511 46.7602 25.3194 46.7521 25.0836V20.8526C46.7532 20.5639 46.6406 20.2863 46.4386 20.08C46.2367 19.8737 45.9616 19.7551 45.6729 19.75H44.5243C44.3457 16.0237 43.0767 12.4319 40.8747 9.42044C38.7734 6.55527 35.8388 4.40867 32.4717 3.27387L32.5924 2.11449C32.608 1.96421 32.5918 1.81234 32.5449 1.66873C32.4979 1.52511 32.4213 1.39297 32.32 1.28088C32.2187 1.16879 32.095 1.07925 31.9569 1.01807C31.8187 0.956898 31.6693 0.925455 31.5182 0.925784H23.2111C23.0599 0.925796 22.9104 0.957571 22.7722 1.01905C22.634 1.08053 22.5103 1.17035 22.409 1.28268C22.3077 1.39501 22.2312 1.52736 22.1843 1.67116C22.1375 1.81495 22.1213 1.96699 22.1369 2.11742L22.2574 3.27974C18.8882 4.41582 15.9528 6.56625 13.8538 9.43618C11.6574 12.4444 10.3895 16.0298 10.2065 19.75H9.05625C8.91571 19.7535 8.77728 19.785 8.649 19.8425C8.52073 19.9 8.40518 19.9825 8.30908 20.0851C8.21297 20.1877 8.13824 20.3084 8.08922 20.4402C8.0402 20.5719 8.01787 20.7121 8.02355 20.8526V25.0836C8.02355 25.6802 8.45974 26.2305 9.05625 26.2305H10.9968L11.1049 27.7697C10.5102 27.9843 9.97818 28.3432 9.55653 28.8142C9.13489 29.2852 8.83685 29.8536 8.68918 30.4682C8.59772 30.8402 8.55151 31.2218 8.55155 31.6048C8.55454 32.5808 8.85458 33.5329 9.41177 34.3342C9.96896 35.1356 10.7569 35.7484 11.6708 36.0911C11.8068 38.7534 12.6202 41.3368 14.0341 43.5967C15.448 45.8566 17.4155 47.718 19.7501 49.0047V54.0627L11.2735 57.6714C11.2536 57.6799 11.2226 57.689 11.2031 57.6986C9.84397 58.384 8.68263 59.4056 7.82944 60.6662C6.97625 61.9269 6.45955 63.3847 6.32844 64.9013C6.32597 64.9311 6.32628 64.9612 6.32628 64.9911V72.9616C6.32223 73.2487 6.43207 73.5257 6.63177 73.732C6.83147 73.9384 7.10477 74.0572 7.39185 74.0625ZM39.5226 75.9124L39.5111 74.1654L41.5885 74.15L41.6002 75.8977L39.5226 75.9124ZM65.6473 75.7084L65.6357 73.9633L67.7131 73.9479L67.7247 75.6937L65.6473 75.7084ZM42.6992 56.2766C42.7101 56.257 42.7203 56.2371 42.73 56.2168C43.2191 55.1889 44.2832 53.4924 45.9144 53.4804L61.1222 53.3867H61.1392C62.2665 53.3867 63.2213 54.1909 64.3215 56.13L66.7783 60.5649L64.9576 60.5716C64.7312 59.5513 64.1618 58.6396 63.3444 57.9884C62.527 57.3372 61.5111 56.986 60.466 56.9933C59.421 57.0006 58.4101 57.3661 57.6019 58.0286C56.7938 58.6912 56.2372 59.6109 56.0252 60.6342L40.2153 60.7561L42.6992 56.2766ZM62.6982 60.5814L58.2839 60.6157C58.468 60.1845 58.7739 59.8164 59.164 59.5564C59.5541 59.2964 60.0115 59.1558 60.4803 59.1517C60.7969 59.147 61.1113 59.2058 61.4047 59.3248C61.6981 59.4438 61.9647 59.6206 62.1885 59.8445C62.4031 60.0561 62.5759 60.3062 62.6982 60.5816V60.5814ZM37.9571 57.6527L39.1975 58.1821L37.9571 60.4185V57.6527ZM36.5421 64.9851C36.5996 64.0232 37.2264 63.0133 38.2789 62.9355C38.3097 62.9382 38.3406 62.9531 38.3728 62.9531H38.3813L68.5812 62.6816C68.5858 62.6816 68.5903 62.6445 68.5949 62.6445H68.6169C68.8709 62.6497 69.1208 62.71 69.3493 62.8211C69.5778 62.9322 69.7794 63.0915 69.9404 63.2881C70.3019 63.7144 70.5086 64.2504 70.5267 64.809L69.5672 70.9898C69.5583 71.0485 69.554 71.1077 69.5544 71.167C69.5545 71.3268 69.4918 71.4803 69.3798 71.5943C69.2678 71.7083 69.1155 71.7737 68.9557 71.7764L38.1898 72.015C38.1103 72.0171 38.0313 72.0017 37.9584 71.9701C37.8483 71.925 37.754 71.8485 37.6872 71.7501C37.6204 71.6517 37.5841 71.5358 37.5828 71.4169C37.5821 71.36 37.577 71.3033 37.5674 71.2472L36.5376 65.0849C36.5386 65.0516 36.5401 65.0183 36.5421 64.9851ZM36.5685 46.396C36.5685 46.5722 36.4985 46.7413 36.3738 46.8659C36.2492 46.9905 36.0802 47.0606 35.9039 47.0606H30.9069C30.7306 47.0606 30.5616 46.9905 30.4369 46.8659C30.3123 46.7413 30.2423 46.5722 30.2423 46.396V45.565C30.2423 45.3887 30.3123 45.2197 30.4369 45.095C30.5616 44.9704 30.7306 44.9004 30.9069 44.9004H35.9039C36.0802 44.9004 36.2492 44.9704 36.3738 45.095C36.4985 45.2197 36.5685 45.3887 36.5685 45.565V46.396ZM32.8653 49.9768V54.115C29.3165 55.6285 25.3048 55.6287 21.9103 54.115V50.0022C25.4448 51.3193 29.337 51.3103 32.8653 49.9769V49.9768ZM42.586 42.4685C42.586 43.7694 41.5844 44.9002 40.2835 44.9002H39.7933C40.555 43.8615 41.2026 42.7437 41.7248 41.5662C41.7556 41.569 41.7882 41.5057 41.8206 41.5057H42.586V42.4685ZM40.7345 29.3522L40.5788 29.3777C39.6456 28.4703 38.8805 27.4048 38.3191 26.2305H40.7345V29.3522ZM46.9064 33.8288V37.6316C46.9066 37.8605 46.861 38.087 46.7723 38.298C46.6835 38.5089 46.5533 38.6999 46.3895 38.8597C46.2257 39.0195 46.0315 39.1448 45.8184 39.2283C45.6053 39.3118 45.3777 39.3517 45.1489 39.3457H42.8946V37.2695C43.0212 36.6325 43.0729 35.983 43.0489 35.334H42.8946V32.0938H45.1489C45.3788 32.0902 45.6072 32.1324 45.8205 32.2181C46.0339 32.3037 46.2281 32.4311 46.3917 32.5926C46.5553 32.7542 46.6851 32.9467 46.7735 33.159C46.8619 33.3713 46.907 33.599 46.9064 33.829V33.8288ZM42.8946 29.9336V26.2305H43.8204V29.9336H42.8946ZM21.6017 5.87624C22.2832 5.5465 22.9967 5.28732 23.731 5.10275C23.9782 5.03583 24.1931 4.88238 24.3367 4.67034C24.4803 4.4583 24.543 4.20175 24.5134 3.94738L24.4099 3.08594H30.3194L30.2301 3.94738C30.2023 4.20269 30.2668 4.45952 30.4119 4.67142C30.557 4.88333 30.7731 5.03633 31.0212 5.10275C31.7629 5.28735 32.4841 5.54618 33.1739 5.87532V7.3774C33.1806 9.15955 32.6481 10.902 31.6464 12.376C30.6446 13.85 29.2205 14.9866 27.5611 15.6364C25.8145 15.0392 24.2996 13.9084 23.2303 12.4037C22.161 10.8991 21.5913 9.09659 21.6017 7.25072V5.87624ZM15.6199 10.7195C16.6876 9.27463 17.8985 8.05522 19.4415 7.08531V7.25072C19.4314 9.57616 20.1606 11.8446 21.5237 13.7287C22.8868 15.6128 24.8133 17.015 27.0252 17.7329L27.2372 17.8066C27.3427 17.8417 27.4531 17.8596 27.5642 17.8596C27.6807 17.8596 27.7963 17.8397 27.9061 17.8008C30.0755 17.0533 31.9574 15.6471 33.2891 13.7784C34.6207 11.9098 35.3357 9.67198 35.3341 7.3774V7.08223C36.787 8.07851 38.0698 9.30245 39.1332 10.707C41.0618 13.3453 42.183 16.4868 42.3608 19.75H12.3701C12.5603 16.4895 13.6888 13.3535 15.6199 10.7195ZM10.1837 24.0703V21.9102H44.5919V24.0703H37.2869C37.182 24.0019 37.0638 23.9564 36.9401 23.9368C36.8164 23.9172 36.69 23.9239 36.5691 23.9564C36.4546 23.978 36.348 23.916 36.2509 24.0703H10.1837ZM14.2976 26.2305L14.0893 28.8034L13.3795 28.4219C13.3397 28.4016 13.3132 28.3863 13.3101 28.3417L13.1616 26.2305H14.2976ZM13.7325 35.284V35.2619C13.7386 35.0106 13.6547 34.7653 13.496 34.5702C13.3373 34.3752 13.1141 34.2432 12.8668 34.1981C12.2561 34.0907 11.7033 33.7704 11.3063 33.2942C10.9093 32.8179 10.6938 32.2165 10.6981 31.5965C10.7004 31.3835 10.7282 31.1717 10.781 30.9654C10.8386 30.7129 10.9542 30.4774 11.1188 30.2775C11.2833 30.0776 11.4922 29.9188 11.7288 29.8137C11.9158 30.024 12.1401 30.198 12.3903 30.3267L14.1425 31.226C14.3446 31.33 14.5694 31.3824 14.7967 31.3785C15.024 31.3747 15.2468 31.3146 15.4452 31.2038C15.6425 31.1004 15.8104 30.9488 15.9335 30.7632C16.0565 30.5776 16.1306 30.3638 16.149 30.1419L16.4647 26.2305H35.996C36.6669 28.101 37.7939 29.7745 39.2748 31.0995L39.4271 31.2212C39.6128 31.3881 39.8514 31.4843 40.1009 31.4928L40.7345 31.5136V37.1045C40.4239 39.4972 39.471 41.7611 37.9769 43.6555C37.7127 43.3643 37.39 43.1323 37.0298 42.9746C36.6697 42.8168 36.2803 42.737 35.8871 42.7402H30.938C30.1899 42.7311 29.4689 43.0195 28.9333 43.5419C28.3978 44.0643 28.0916 44.778 28.0821 45.5261V46.29C28.0855 46.7633 28.2073 47.2282 28.4364 47.6424C28.6655 48.0566 28.9946 48.4069 29.3937 48.6614C28.6984 48.7687 27.996 48.8228 27.2924 48.8234C19.8273 48.8234 13.7325 42.7496 13.7325 35.284ZM18.9786 56.7313L20.741 55.9752C22.8255 56.9215 25.0883 57.4111 27.3775 57.4111C29.6668 57.4111 31.9296 56.9215 34.0141 55.9752L35.797 56.7313V61.8059C35.1798 62.3341 34.7799 63.1079 34.5551 63.8794H18.9786V56.7313ZM15.5841 58.152L16.8185 57.6532V63.8789H15.5841V58.152ZM14.0411 66.0391H34.5009L35.425 71.5589C35.4301 71.6782 35.4438 71.7481 35.4637 71.9024H14.0411V66.0391ZM8.48644 65.0377C8.57579 63.9024 8.95677 62.8095 9.59248 61.8647C10.2282 60.9199 11.0971 60.1553 12.115 59.6448L13.4239 59.074V63.8789H12.8839C12.7482 63.8761 12.6133 63.9015 12.4878 63.9533C12.3623 64.0052 12.2489 64.0824 12.1547 64.1802C12.0605 64.278 11.9876 64.3942 11.9405 64.5215C11.8934 64.6489 11.8731 64.7846 11.881 64.9201V71.9024H8.48644V65.0377Z" fill="#8A1A10"/>
<path d="M40.6698 70.9766H40.6911C41.0619 70.9741 41.4286 70.8985 41.7702 70.7543C42.1118 70.61 42.4217 70.3998 42.682 70.1358C42.9424 69.8717 43.1481 69.5589 43.2875 69.2153C43.427 68.8717 43.4973 68.504 43.4945 68.1332C43.4912 67.3748 43.1887 66.6484 42.6527 66.1119C42.1289 65.5808 41.4169 65.2775 40.671 65.2676H40.6496C40.2747 65.2689 39.9038 65.3441 39.558 65.4887C39.2122 65.6334 38.8982 65.8448 38.6341 66.1108C38.1007 66.648 37.8025 67.3751 37.8052 68.1322C37.8079 68.8892 38.1112 69.6142 38.6484 70.1476C39.1856 70.6811 39.9127 70.9792 40.6698 70.9766ZM40.1975 67.6567C40.3174 67.5219 40.4855 67.4397 40.6655 67.4277H40.6706C40.8045 67.4366 40.9332 67.4832 41.0417 67.5623C41.1502 67.6413 41.234 67.7495 41.2835 67.8742C41.333 67.999 41.3461 68.1353 41.3213 68.2672C41.2965 68.3991 41.2348 68.5213 41.1433 68.6195C41.0824 68.6819 41.0096 68.7315 40.9292 68.7653C40.8488 68.7991 40.7624 68.8165 40.6752 68.8164H40.6701C40.4951 68.8168 40.327 68.7479 40.2026 68.6247C40.0783 68.5014 40.0078 68.334 40.0066 68.1589C40.0045 67.9734 40.0727 67.794 40.1975 67.6567Z" fill="#8A1A10"/>
<path d="M66.439 70.8223H66.4606C66.8331 70.8177 67.201 70.7389 67.5427 70.5905C67.8845 70.4422 68.1933 70.2272 68.451 69.9582C68.8418 69.5586 69.1065 69.053 69.2123 68.5043C69.3181 67.9555 69.2602 67.3877 69.046 66.8715C68.8318 66.3553 68.4706 65.9135 68.0073 65.6009C67.544 65.2883 66.9991 65.1187 66.4402 65.1133H66.4191C66.0477 65.1165 65.6806 65.1928 65.3388 65.3379C64.9969 65.483 64.687 65.6941 64.4267 65.959C64.1665 66.2239 63.961 66.5376 63.822 66.8819C63.6829 67.2263 63.6132 67.5947 63.6166 67.9661C63.6198 68.7233 63.9224 69.4485 64.4584 69.9834C64.9825 70.5127 65.6941 70.8141 66.439 70.8223ZM66.4348 67.2734H66.4399C66.6176 67.2745 66.7879 67.3448 66.9146 67.4693C67.0414 67.5938 67.1146 67.7628 67.1188 67.9405V67.9485C67.1176 68.1323 67.0466 68.3088 66.9202 68.4422C66.7964 68.5748 66.6257 68.6537 66.4445 68.6621H66.4402C66.2632 68.6542 66.0961 68.5777 65.9745 68.4487C65.8481 68.3179 65.7771 68.1432 65.7766 67.9613C65.7742 67.7832 65.8418 67.6113 65.9649 67.4827C66.088 67.354 66.2568 67.2788 66.4348 67.2734Z" fill="#8A1A10"/>
<path d="M48.4372 69.2795H48.4454C48.5864 69.2808 48.7262 69.254 48.8567 69.2007C48.9873 69.1474 49.1059 69.0686 49.2057 68.969C49.3054 68.8694 49.3844 68.7509 49.4379 68.6205C49.4915 68.4901 49.5185 68.3503 49.5174 68.2093L49.5056 66.6253C49.5041 66.4853 49.4749 66.347 49.4198 66.2183C49.3646 66.0897 49.2845 65.9732 49.1841 65.8757C49.0837 65.7782 48.9649 65.7015 48.8347 65.65C48.7045 65.5986 48.5654 65.5735 48.4255 65.576H48.4173C48.2761 65.5751 48.1361 65.6022 48.0055 65.6558C47.8749 65.7094 47.7562 65.7885 47.6564 65.8884C47.5567 65.9884 47.4778 66.1072 47.4244 66.2379C47.3709 66.3686 47.344 66.5086 47.3453 66.6498L47.3571 68.2321C47.3586 68.372 47.3878 68.5102 47.443 68.6387C47.4983 68.7673 47.5784 68.8836 47.6788 68.981C47.7793 69.0783 47.898 69.1549 48.0281 69.2061C48.1583 69.2573 48.2973 69.2823 48.4372 69.2795Z" fill="#8A1A10"/>
<path d="M58.6924 69.2793H58.7005C59.2969 69.125 59.7769 68.7507 59.7726 68.1542L59.7607 66.5205C59.7596 66.2326 59.646 65.9566 59.4442 65.7514C59.2424 65.5461 58.9684 65.4279 58.6806 65.4219H58.6725C58.3851 65.4251 58.1107 65.5423 57.9097 65.7478C57.7087 65.9532 57.5974 66.23 57.6004 66.5174L57.6123 68.1656C57.6127 68.4551 57.7256 68.733 57.9271 68.9408C58.1286 69.1487 58.403 69.27 58.6924 69.2793Z" fill="#8A1A10"/>
<path d="M51.8555 69.2792H51.8637C52.0058 69.2782 52.1464 69.249 52.2773 69.1935C52.4082 69.138 52.5269 69.0572 52.6265 68.9558C52.7261 68.8543 52.8047 68.7342 52.8577 68.6023C52.9108 68.4704 52.9373 68.3293 52.9357 68.1871L52.9238 66.6133C52.922 66.4739 52.8925 66.3364 52.837 66.2086C52.7816 66.0807 52.7013 65.9652 52.6008 65.8687C52.5003 65.7722 52.3816 65.6966 52.2516 65.6464C52.1217 65.5962 51.983 65.5723 51.8438 65.5761H51.8357C51.6957 65.5727 51.5565 65.5975 51.4262 65.6489C51.296 65.7003 51.1774 65.7774 51.0774 65.8754C50.9775 65.9735 50.8982 66.0906 50.8443 66.2199C50.7904 66.3491 50.763 66.4879 50.7637 66.6279L50.7756 68.221C50.7769 68.3615 50.8059 68.5002 50.8609 68.6295C50.9159 68.7587 50.9958 68.8758 51.0961 68.974C51.1964 69.0723 51.3151 69.1499 51.4454 69.2022C51.5757 69.2546 51.7151 69.2807 51.8555 69.2792Z" fill="#8A1A10"/>
<path d="M55.2738 69.2793H55.282C55.5714 69.272 55.8462 69.151 56.0469 68.9424C56.2476 68.7338 56.3579 68.4545 56.3541 68.1651L56.3423 66.526C56.3414 66.2376 56.2281 65.9609 56.0264 65.7547C55.8247 65.5486 55.5506 65.4291 55.2623 65.4219H55.2538C54.9651 65.4276 54.6905 65.5471 54.4896 65.7545C54.2888 65.9619 54.1781 66.2403 54.1817 66.529L54.1935 68.1716C54.1942 68.4605 54.3074 68.7377 54.5091 68.9445C54.7108 69.1513 54.9851 69.2714 55.2738 69.2793Z" fill="#8A1A10"/>
</svg>

<svg width="79" height="79" fill="none" xmlns="http://www.w3.org/2000/svg"><path d="M16.201 66.503a1.08 1.08 0 00-1.08 1.08v.999a1.08 1.08 0 002.16 0v-.999a1.08 1.08 0 00-1.08-1.08zm9.394-54.623h3.924a1.08 1.08 0 100-2.16h-3.924a1.08 1.08 0 100 2.16zm0-3.702h3.924a1.08 1.08 0 100-2.16h-3.924a1.08 1.08 0 100 2.16z" fill="#8A1A10"/><path d="M7.392 74.063h29.95c.003 0 .005-.009.008-.008l.014 2.117a1.919 1.919 0 001.922 1.902h.014l2.555-.019a1.923 1.923 0 001.907-1.934l-.013-1.988 19.726-.153.014 2.008a1.945 1.945 0 001.921 1.932h.014l2.555-.044a1.935 1.935 0 001.908-1.947l-.015-2.146a2.775 2.775 0 001.841-2.529l.963-6.193a1.07 1.07 0 00.012-.174 4.572 4.572 0 00-1.13-3.004 3.914 3.914 0 00-2.29-1.29l-3.062-5.518c-1.025-1.807-2.527-3.848-5.066-3.848h-.035l-15.207.093c-2.073.016-3.884 1.41-5.104 3.952l-.568 1.019-5.2-2.228v-4.997h.861a2.888 2.888 0 002.734-2.005h1.662c2.492 0 4.463-2.1 4.463-4.592v-.963h.403a3.875 3.875 0 003.917-3.874v-.91h.868a1.08 1.08 0 100-2.16h-.867v-.733a3.985 3.985 0 00-3.086-3.853V26.13a1.047 1.047 0 00.771-1.046v-4.231a1.098 1.098 0 00-1.08-1.103h-1.148a19.045 19.045 0 00-3.65-10.33 17.254 17.254 0 00-8.402-6.146l.12-1.16A1.078 1.078 0 0031.518.926h-8.307a1.08 1.08 0 00-1.074 1.191l.12 1.163a17.233 17.233 0 00-8.403 6.156 19.08 19.08 0 00-3.647 10.314h-1.15a1.06 1.06 0 00-1.033 1.103v4.23c0 .597.436 1.148 1.032 1.148h1.94l.109 1.539a3.817 3.817 0 00-2.416 2.698 4.758 4.758 0 00.723 3.866 4.807 4.807 0 002.259 1.757 15.657 15.657 0 008.08 12.914v5.058l-8.478 3.608c-.02.009-.05.018-.07.028A8.928 8.928 0 006.328 64.9c-.002.03-.002.06-.002.09v7.97a1.086 1.086 0 001.066 1.102zm32.13 1.85l-.01-1.748 2.077-.015.011 1.748-2.077.014zm26.125-.205l-.011-1.745 2.077-.015.012 1.746-2.078.014zM42.7 56.277l.031-.06c.49-1.028 1.553-2.725 3.184-2.737l15.208-.093h.017c1.127 0 2.082.804 3.182 2.743l2.457 4.435-1.82.007a4.568 4.568 0 00-8.933.062l-15.81.122 2.484-4.48zm20 4.304l-4.415.035a2.41 2.41 0 012.196-1.464 2.366 2.366 0 011.709.692c.214.212.387.462.51.738zm-24.742-2.928l1.24.53-1.24 2.236v-2.766zm-1.415 7.332c.058-.962.684-1.972 1.737-2.05.03.003.062.018.094.018h.008l30.2-.271c.005 0 .01-.038.014-.038h.022a1.757 1.757 0 011.323.644c.362.426.569.962.587 1.521l-.96 6.18a1.13 1.13 0 00-.013.178.61.61 0 01-.598.61l-30.766.238a.605.605 0 01-.607-.598.969.969 0 00-.016-.17l-1.03-6.162.005-.1zm.026-18.589a.664.664 0 01-.664.665h-4.997a.665.665 0 01-.665-.665v-.831a.665.665 0 01.665-.665h4.997a.664.664 0 01.664.665v.831zm-3.703 3.58v4.139c-3.549 1.514-7.56 1.514-10.955 0v-4.113a15.59 15.59 0 0010.955-.025zm9.721-7.508c0 1.301-1.002 2.432-2.303 2.432h-.49a17.93 17.93 0 001.932-3.334c.03.003.063-.06.096-.06h.765v.962zm-1.852-13.116l-.155.026a11.019 11.019 0 01-2.26-3.148h2.415v3.122zm6.172 4.477v3.803a1.715 1.715 0 01-1.757 1.714h-2.254V37.27a8.346 8.346 0 00.154-1.936h-.154v-3.24h2.254a1.729 1.729 0 011.757 1.735zm-4.011-3.895V26.23h.925v3.704h-.925zM21.602 5.876c.681-.33 1.395-.589 2.129-.773a1.069 1.069 0 00.782-1.156l-.103-.861h5.91l-.09.861a1.075 1.075 0 00.791 1.156 11.35 11.35 0 012.153.772v1.502a8.834 8.834 0 01-5.613 8.26 8.81 8.81 0 01-5.96-8.386V5.876zM15.62 10.72c1.068-1.444 2.278-2.664 3.822-3.634v.166a10.97 10.97 0 007.583 10.482l.212.074a1.036 1.036 0 00.67-.006 11.017 11.017 0 007.427-10.424v-.295a16.394 16.394 0 013.8 3.625 16.88 16.88 0 013.227 9.043H12.37a16.942 16.942 0 013.249-9.03zm-5.436 13.35v-2.16h34.408v2.16h-7.305a.89.89 0 00-.718-.114c-.114.022-.221-.04-.318.114H10.184zm4.114 2.16l-.209 2.573-.71-.381c-.04-.02-.066-.036-.069-.08l-.148-2.111h1.136zm-.566 9.054v-.022a1.056 1.056 0 00-.865-1.064 2.623 2.623 0 01-2.086-3.233 1.664 1.664 0 01.948-1.151c.187.21.411.384.661.513l1.752.899a1.378 1.378 0 001.303-.022 1.323 1.323 0 00.704-1.062l.316-3.912h19.531a11.945 11.945 0 003.279 4.87l.152.121c.186.167.424.263.674.272l.633.02v5.591a13.355 13.355 0 01-2.757 6.552 2.789 2.789 0 00-2.09-.916h-4.949a2.822 2.822 0 00-2.856 2.786v.764a2.836 2.836 0 001.312 2.371 13.7 13.7 0 01-2.102.162c-7.465 0-13.56-6.073-13.56-13.539zm5.247 21.447l1.762-.756a16.055 16.055 0 0013.273 0l1.783.756v5.075c-.617.528-1.017 1.302-1.242 2.073H18.98v-7.148zm-3.395 1.421l1.235-.499v6.226h-1.235v-5.727zm-1.543 7.887h20.46l.924 5.52c.005.12.019.19.039.343H14.04V66.04zm-5.555-1.001a6.613 6.613 0 013.629-5.393l1.309-.571v4.805h-.54a.985.985 0 00-1.003 1.041v6.982H8.486v-6.864z" fill="#8A1A10"/><path d="M40.67 70.977h.021a2.824 2.824 0 002.803-2.844 2.878 2.878 0 00-.841-2.021 2.836 2.836 0 00-1.982-.844h-.021a2.855 2.855 0 00.02 5.709zm-.473-3.32a.687.687 0 01.468-.23h.006a.71.71 0 01.472 1.192.653.653 0 01-.468.197h-.005a.662.662 0 01-.663-.657.734.734 0 01.19-.502zm26.242 3.165h.022a2.803 2.803 0 001.99-.864 2.852 2.852 0 00-2.01-4.845h-.022a2.827 2.827 0 00-2.802 2.853c.003.757.305 1.483.841 2.017.525.53 1.236.831 1.981.84zm-.004-3.549h.005a.683.683 0 01.679.668v.007a.725.725 0 01-.199.494.695.695 0 01-.475.22h-.005a.704.704 0 01-.475-1.18.679.679 0 01.47-.209zM48.437 69.28h.008a1.062 1.062 0 001.072-1.07l-.011-1.585a1.063 1.063 0 00-1.08-1.049h-.009a1.067 1.067 0 00-1.072 1.074l.012 1.582a1.059 1.059 0 001.08 1.047zm10.255 0h.008c.597-.155 1.077-.53 1.073-1.126l-.012-1.633a1.103 1.103 0 00-1.08-1.1h-.008a1.084 1.084 0 00-1.073 1.096l.012 1.649a1.116 1.116 0 001.08 1.113zm-6.837 0h.009a1.08 1.08 0 001.072-1.093l-.012-1.574a1.05 1.05 0 00-1.08-1.037h-.008a1.047 1.047 0 00-1.072 1.052l.012 1.593a1.069 1.069 0 001.08 1.058zm3.419 0h.008a1.1 1.1 0 001.072-1.115l-.012-1.639a1.108 1.108 0 00-1.08-1.104h-.008a1.094 1.094 0 00-1.072 1.107l.011 1.643a1.11 1.11 0 001.08 1.107z" fill="#8A1A10"/></svg>
